public/svg/whatsapp.svg

<svg width="24" height="25" viewBox="0 0 24 25" fill="none" xmlns="http://www.w3.org/2000/svg">
<path d="M0 24.3857L1.71374 18.0192C0.331652 15.5392 -0.107452 12.6452 0.477007 9.86825C1.06147 7.09133 2.63028 4.61778 4.89558 2.90149C7.16088 1.1852 9.9707 0.341305 12.8094 0.524656C15.6482 0.708007 18.3254 1.90631 20.3499 3.89967C22.3744 5.89302 23.6103 8.54773 23.8308 11.3766C24.0514 14.2056 23.2417 17.0189 21.5505 19.3005C19.8593 21.582 17.4 23.1787 14.6238 23.7976C11.8475 24.4164 8.94071 24.0159 6.43666 22.6696L0 24.3857ZM6.74702 20.2872L7.1451 20.5227C8.95884 21.5951 11.0773 22.0388 13.1702 21.7848C15.2632 21.5308 17.2132 20.5934 18.7162 19.1186C20.2193 17.6438 21.191 15.7145 21.48 13.6313C21.769 11.5481 21.359 9.42805 20.314 7.60154C19.2689 5.77503 17.6474 4.34466 15.7022 3.53332C13.757 2.72199 11.5974 2.57526 9.55988 3.11602C7.52237 3.65677 5.72142 4.85462 4.43768 6.52291C3.15394 8.19119 2.45953 10.2362 2.46266 12.3392C2.46096 14.083 2.94444 15.793 3.8593 17.279L4.10894 17.6895L3.15086 21.2428L6.74702 20.2872Z" fill="white"/>
<path fill-rule="evenodd" clip-rule="evenodd" d="M16.2155 14.1602C15.9822 13.9725 15.7089 13.8403 15.4166 13.7738C15.1243 13.7074 14.8207 13.7083 14.5288 13.7766C14.0902 13.9583 13.8069 14.6448 13.5235 14.988C13.4637 15.0703 13.3759 15.128 13.2766 15.1503C13.1772 15.1726 13.0731 15.1579 12.9837 15.1091C11.3782 14.4819 10.0324 13.3316 9.16491 11.8451C9.09092 11.7524 9.05591 11.6346 9.06723 11.5166C9.07856 11.3986 9.13534 11.2896 9.22563 11.2125C9.54169 10.9004 9.77375 10.5139 9.90034 10.0886C9.92845 9.61958 9.82071 9.15235 9.58997 8.74267C9.4116 8.16831 9.07212 7.65689 8.61165 7.26883C8.37416 7.16229 8.11083 7.12656 7.85343 7.16597C7.59604 7.20538 7.35557 7.31823 7.16104 7.49092C6.82333 7.78154 6.55528 8.14402 6.37663 8.55167C6.19798 8.95932 6.11327 9.40174 6.12875 9.84637C6.12979 10.0961 6.16152 10.3447 6.22321 10.5867C6.37988 11.168 6.62081 11.7235 6.93839 12.2355C7.16752 12.6276 7.41752 13.0073 7.68731 13.3728C8.56412 14.5734 9.66629 15.5928 10.9326 16.3743C11.5681 16.7715 12.2473 17.0944 12.9567 17.3367C13.6937 17.6699 14.5074 17.7978 15.3114 17.7068C15.7695 17.6377 16.2036 17.4573 16.5754 17.1815C16.9471 16.9057 17.2453 16.543 17.4435 16.1253C17.56 15.873 17.5953 15.5909 17.5447 15.3177C17.4233 14.7592 16.6743 14.4294 16.2155 14.1602Z" fill="white"/>
</svg>

<svg xmlns="http://www.w3.org/2000/svg" width="24" height="25" fill="none"><path fill="#fff" d="m0 24.386 1.714-6.367A11.76 11.76 0 0 1 .477 9.87 11.8 11.8 0 0 1 4.896 2.9 11.84 11.84 0 0 1 20.35 3.9a11.769 11.769 0 0 1 1.2 15.4 11.82 11.82 0 0 1-6.926 4.498 11.85 11.85 0 0 1-8.187-1.128zm6.747-4.099.398.236a9.57 9.57 0 0 0 11.571-1.404 9.51 9.51 0 0 0 1.598-11.517 9.55 9.55 0 0 0-4.612-4.069 9.58 9.58 0 0 0-6.142-.417 9.56 9.56 0 0 0-5.122 3.407 9.5 9.5 0 0 0-1.975 5.816 9.4 9.4 0 0 0 1.396 4.94l.25.41-.958 3.554z"/><path fill="#fff" fill-rule="evenodd" d="M16.215 14.16a1.97 1.97 0 0 0-1.686-.383c-.439.181-.722.868-1.005 1.211a.42.42 0 0 1-.54.121 7.64 7.64 0 0 1-3.82-3.264.457.457 0 0 1 .062-.633c.316-.312.548-.698.674-1.123a2.44 2.44 0 0 0-.31-1.346 3.15 3.15 0 0 0-.978-1.474 1.35 1.35 0 0 0-1.451.222 2.98 2.98 0 0 0-1.032 2.355q.001.377.094.74c.157.582.398 1.137.715 1.65q.345.588.75 1.137c.876 1.2 1.978 2.22 3.245 3.001.635.398 1.314.72 2.024.963a4.5 4.5 0 0 0 2.354.37 2.83 2.83 0 0 0 2.133-1.582c.116-.252.151-.534.1-.807-.12-.559-.87-.889-1.329-1.158" clip-rule="evenodd"/></svg>
